src/sources/forus-platform/resources/_platform-common/assets/img/features/icons/bng/icon-step-3.svg

<svg width="25" height="24" viewBox="0 0 25 24" fill="none" xmlns="http://www.w3.org/2000/svg">
    <path d="M12.333 2C6.83301 2 2.33301 6.5 2.33301 12C2.33301 17.5 6.83301 22 12.333 22C17.833 22 22.333 17.5 22.333 12C22.333 6.5 17.833 2 12.333 2ZM10.333 17L5.33301 12L6.74301 10.59L10.333 14.17L17.923 6.58L19.333 8L10.333 17Z" fill="white"/>
</svg>

<svg width="25" height="24" fill="none" xmlns="http://www.w3.org/2000/svg"><path d="M12.333 2c-5.5 0-10 4.5-10 10s4.5 10 10 10 10-4.5 10-10-4.5-10-10-10Zm-2 15-5-5 1.41-1.41 3.59 3.58 7.59-7.59L19.333 8l-9 9Z" fill="#fff"/></svg>
